!!!OTL: ICH FUHR WOHL UEBERN SEE
!!!ARE: Europa, Mitteleuropa, Deutschland, Herzogtum Berg
!!!SCT: Z0165
!!!YEM: Copyright 1995, estate of Helmut Schaffrath.
**kern
*ICvox
*Ivox
*M2/4
*k[f#]
*e:
{8B
=1
8e
8f#
8gn
8a
=2
8b
16b
16ccn
8b}
{8b
=3
8ccn
8b
8a
8a
=4
4.gn}
{8b
=5
8b
8a
8ccn
8b
=6
8.a
16b
4a}
=7
{16gn
16gn
8gn
16gn
16f#
8e
=8
8.f#
16gn
8f#}
{8b
=9
8b
8a
8ccn
8b
=10
8.a
16b
8a}
{8gn
=11
8f#
8e
8b
8b
=12
2r}
=13
{8f#
8e
8b
8b
=14
4e
8r}
==
!!!AGN: Erzaehlung, lustige Romanze
!!!ONB: ESAC (Essen Associative Code) Database: ZUCCAL
!!!AMT: simple duple
!!!AIN: vox
!!!EED: Helmut Schaffrath
!!!EEV: 1.0
*-
